src/main/resources/icons/AntIcons/icons/task.svg

<svg xmlns="http://www.w3.org/2000/svg" width="16" height="16" viewBox="0 0 16 16">
  <g fill="none" fill-rule="evenodd">
    <circle cx="8" cy="8" r="2" fill="#40B6E0" fill-opacity=".6"/>
    <circle cx="10.5" cy="12" r="2" fill="#40B6E0" fill-opacity=".6"/>
    <circle cx="5.5" cy="12" r="2" fill="#40B6E0" fill-opacity=".6"/>
    <path fill="#9AA7B0" fill-opacity=".8" d="M12.79015,9 L10.5626559,9 C10.6836137,8.69012949 10.75,8.35293644 10.75,8.0002367 C10.75,6.48132291 9.51878306,5.25 8,5.25 C6.48121694,5.25 5.25,6.48132291 5.25,8.0002367 C5.25,8.35293644 5.31638632,8.69012949 5.43734414,9 L3.20984997,9 L3.29218604,8.94092614 C3.23171292,8.63665953 3.20000005,8.32203335 3.20000005,8.00000024 C3.20000005,7.67796698 3.23171295,7.36334066 3.29218612,7.05907392 L1.8139829,5.99850385 C2.0984715,5.11859166 2.5654833,4.32076327 3.1703829,3.64965409 L4.82794202,4.39741509 C5.29970989,3.98170311 5.85378059,3.65720451 6.46257226,3.45150114 L6.64317522,1.64182422 C7.08079213,1.54889386 7.53468618,1.5 8,1.5 C8.46531382,1.5 8.91920787,1.54889386 9.35682478,1.64182422 L9.53742772,3.45150097 C10.1462195,3.65720431 10.7002903,3.98170292 11.1720583,4.39741495 L12.8296171,3.64965409 C13.4345167,4.32076327 13.9015285,5.11859166 14.1860171,5.99850385 L12.7078143,7.05907362 C12.7682875,7.36334046 12.8000004,7.67796687 12.8000004,8.00000024 C12.8000004,8.32203346 12.7682875,8.63665973 12.7078144,8.94092644 L12.79015,9 Z"/>
  </g>
</svg>

<svg xmlns="http://www.w3.org/2000/svg" width="16" height="16" viewBox="0 0 16 16"><rect id="frame" width="16" height="16" fill="none"/><g fill="none" fill-rule="evenodd"><circle cx="8" cy="8" r="2" fill="#40B6E0" fill-opacity=".6"/><circle cx="10.5" cy="12" r="2" fill="#40B6E0" fill-opacity=".6"/><circle cx="5.5" cy="12" r="2" fill="#40B6E0" fill-opacity=".6"/><path fill="#9AA7B0" fill-opacity=".8" d="M12.79 9h-2.227a2.75 2.75 0 1 0-5.125 0H3.21l.082-.06a4.823 4.823 0 0 1 0-1.88L1.814 5.998a6.493 6.493 0 0 1 1.356-2.35l1.658.748a4.795 4.795 0 0 1 1.635-.945l.18-1.81a6.526 6.526 0 0 1 2.714 0l.18 1.81c.61.205 1.163.53 1.635.945l1.658-.747a6.493 6.493 0 0 1 1.356 2.349l-1.478 1.06a4.823 4.823 0 0 1 0 1.882L12.79 9z"/></g></svg>
